src/icons/svgs/16/clock-rotate-left.svg

<svg width="16" height="16" viewBox="0 0 16 16" fill="none" xmlns="http://www.w3.org/2000/svg">
<path d="M14.863 6.58833C14.6588 5.5325 13.1217 0.997085 8.00004 1C5.82711 0.998835 4.18793 1.90854 3.05189 3.051L2.11971 2.11825C1.70671 1.70496 1 1.9975 1 2.582V6.12867C1 6.38627 1.20883 6.59504 1.46638 6.59504H5.01015C5.59494 6.59504 5.88807 5.88804 5.47448 5.47446L4.37169 4.37167C5.90294 2.83225 7.63545 2.8655 8.00004 2.8655C10.7155 2.8646 12.5851 4.84446 13.0138 6.87883C13.717 10.198 11.1941 13.1322 8.00004 13.1322C7.16587 13.1322 6.37836 12.9306 5.68157 12.5754C5.31523 12.3886 4.87365 12.444 4.58315 12.7348C4.14156 13.177 4.24393 13.9312 4.7986 14.2188C5.75711 14.7171 6.84503 15 8.00004 15C12.3255 15 15.7351 11.0742 14.863 6.58833ZM8.00004 4.26667C7.61504 4.26667 7.30004 4.58167 7.30004 4.96667V8.46667C7.30007 8.57528 7.32539 8.6824 7.37398 8.77955C7.42256 8.87669 7.49309 8.9612 7.57998 9.02638L9.44666 10.4264C9.57213 10.52 9.69463 10.5667 9.84047 10.5667C10.0533 10.5667 10.2634 10.4701 10.4011 10.2868C10.633 9.97709 10.5701 9.53843 10.2611 9.30713L8.70004 8.11667V4.96667C8.70004 4.58167 8.38796 4.26667 8.00004 4.26667Z" fill="black"/>
</svg>

<svg width="16" height="16" viewBox="0 0 16 16" xmlns="http://www.w3.org/2000/svg">
    <path d="M14.863 6.588C14.659 5.532 13.122.998 8 1c-2.173-.001-3.812.909-4.948 2.051l-.932-.933A.656.656 0 0 0 1 2.582v3.547c0 .257.209.466.466.466H5.01a.656.656 0 0 0 .464-1.12L4.372 4.371C5.902 2.832 7.635 2.866 8 2.866c2.716-.001 4.585 1.978 5.014 4.013A5.144 5.144 0 0 1 8 13.132a5.09 5.09 0 0 1-2.318-.557.94.94 0 0 0-1.099.16c-.441.442-.34 1.196.216 1.484A6.919 6.919 0 0 0 8 15c4.325 0 7.735-3.926 6.863-8.412zM8 4.267c-.385 0-.7.315-.7.7v3.5a.7.7 0 0 0 .28.56l1.867 1.4a.63.63 0 0 0 .393.14.7.7 0 0 0 .421-1.26L8.7 8.117v-3.15a.7.7 0 0 0-.7-.7z"/>
</svg>
